X:1
T:O Magnum Mysterium
T:Thomas Luis de Victoria
%%score 1 2 3 4
L:1/8
M:4/4
K:F
V:1 treble nm="Soprano" snm="S."
V:2 treble nm="Alto" snm="A."
V:3 treble-8 nm="Tenor" snm="T."
V:4 bass nm="Bass" snm="B."
V:1
"^1ª sección" A8 |2 D4 A4- || A2 A2 B2 B2 | A4 z2 d2 | B2 c2 d3 d | d2 A2 B2 A2- | AGFE FGAF | %7
w: O|ma- gnum|* my- ste- ri-|um et|ad- mi- ra- bi-|le sa- cra- men-||
 GF FE/D/ E4- | E4 D4 | _G8 | G4 _G3 =G | A2 B2- BA G2- | G2 _G2 =G2 FE | D2 E2 F4 | z2 d2 B2 c2 | %15
w: |* tum,|O|ma- gnum *|my- * * * *|* * ste- * *|* ri- um|et ad- mi-|
 d3 d d2 B2 | G2 A2 B3 B | B2 A2- AG G2- | G2 _G2 =G4 |2 z8 || z2 B2 A3 _G | G2 A2 B2 G2 | %22
w: ra- bi- le, et|ad- mi- ra- bi-|le sa- * cra- men-|* * tum,||ut a- ni-|ma- li- a vi-|
 B3 B B2 B2 | A4 A4 | _G2 A2 A3 A | A2 _c2 =c4 | (B2 B)A/G/ A4 |2 B4 A4 || z8 | z2 D2 G4 | %30
w: de- rent Do- mi-|num na-|tum, vi- de- rent|Do- mi- num|na- * * * *|* tum,||ja- cen-|
 F2 D2 E2 _G2 | G3 A B2 B2 | A4 z4 | z8 | z2 G2 c4 | B2 G2 A2 _c2 | c3 B AG (G2 | G2) _GE G2 G2 | %38
w: tem in prae- se-|* * * pi-|o,||ja- cen-|tem in prae- se-||* * * * pi-|
 !arpeggio!G4"^-" z4 |2"^2ª sección" _G6 G2 || _G4 =G4 | _G3 =G A2 (B2 | B)A A3 G G2 | A2 _G4 G2 | %44
w: o.|O be-|a- ta|Vir- * * *||go, cu- jus|
 G3 G G4 | z2 (G2 G)ABG | A2 d2 c4 | B2 d2 c2 A2 | B3 A GF FE/D/ | E2 E2 D2 (A2 | A2) F4 (B2 | %51
w: vi- sce- ra|me- * * * *|* ru- e-|runt por- ta- re|Do- * * * * * *|* mi- num Je-|* sum Chri-|
 B)A G4 _G2 |[M:3/4]"^-" !arpeggio!G4"^3ª sección" B2 || A4 _G2 | G3 F GA | B2 A4 | B4 G2 | F4 D2 | %58
w: |stum. Al-|le- lu-|ia, Al- * *|le- lu-|ia, Al-|le- lu-|
 E3 D EF | G4 _G2 | G6 | z4 c2 | B3 A BG | A2 FG AB | c4 c2 | B2 d4 |[M:4/4] d8 | z2 d2 dcBA | %68
w: ia, Al- * *|le- lu-|ia,|Al-|le- * * *|* lu- * * *|ia, Al-|le- lu-|ia,|Al- le- * * *|
 G2 c3 BAG | _G2 =G4 _G2 | (G8 | (G8) | (G8) |"^-" !arpeggio!G8) |] %74
w: * lu- * * *||ia.||||
V:2
 z8 |2 z4 D4- || D4 G,4 | D6 D2 | _E2 E2 D4 | z2 D2 B,2 C2 | D3 D D2 A,2 | B,2 D4 _D_C | _D4 =D4 | %9
w: |O|* ma-|gnum my-|ste- ri- um|et ad- mi-|ra- bi- le sa-|cra- men- * *|* tum,|
 D8 | D4 D3 E | F2 F,2 G,3 A, | B,2 A,2 G,2 D2 | D2 C2 A,3 A, | A,2 B,2- B,A, G,2- | %15
w: O|ma- gnum *|my- ste- * *|* ri- um et|ad- mi- ra- bi-|le sa- cra- men- *|
 G,2 _G,2 =G,2 G2 | D2 F2 F3 F | F4 D2 _E2 | D4 D4- |2 D4 z4 || z2 G2 F3 D | E2 _G2 =G2 D2 | %22
w: * * tum, et|ad- mi- ra- bi-|le sa- cra-|men- tum||ut a- ni-|ma- li- a vi-|
 D3 D D2 E2 | F4 E4 | D2 F2 F3 F | F2 F2 G2 (A2 | A)G (G2 G2) _G2 |2 G2 D2 F3 E/F/ || %28
w: de- rent Do- mi-|num na-|tum, vi- de- rent|Do- mi- num na-||tu, ja- cen- * *|
 G2 FE D2 A,2 | z4 z2 G,2 | D4 C2 A,2 | _C2 =C2 DCDE | F3 E/F/ G2 FE | D4 z2 A,2 | D4 C2 A,2 | %35
w: * * * * tem,|ja-|cen- tem in|prae- se- * * * *|* * * * pi- *|o. ja-|cen- tem in|
 B,CDE F4 | G3 F _ED E2 | D6 D2 | B,4 z4 |2 D6 D2 || D4 D4 | (D8 | D8) | D4 z2 (D2 | D2) D2 _E3 E | %45
w: prae- * * * *|se- * * * *|* pi-|o.|O be-|a- ta|Vir-||go cu-|* jus vi- sce-|
 D2 G,A, B,CDE | F2 F2 F4 | D2 D2 E2 _G2 | G3 F ED (D2 | D2) _D2 =D2 F2 | FEDC D4 | B,2 C2 D4 | %52
w: ra me- * * * * *|* ru- e-|runt por- ta- re|Do- * * * *|* mi- num Je-||* sum Chri-|
[M:3/4] D4 G2 || F4 D2 | E3 D EF | G4 _G2 | G4 D2 | D4 A,2 | C4 C2 | D2 D4 | D4 B,2 | G,4 _G,2 | %62
w: stum. Al-|le- lu-|ia, Al- * *|le- lu-|ia, Al-|le- lu-|ia, Al-|le- lu-|ia, Al-|le- lu-|
 G,4 G2 | F4 D2 | E3 D EF | G4 _G2 |[M:4/4] G4 z2 D2 | DCB,A, G,2 G2 | GF_ED C2 E2 | D4 z2 A,2 | %70
w: ia, Al-|le- lu-|ia, Al- * *|le- lu-|ia, Al-|le- * * * * lu-||ia, Al-|
 B,3 C D2 (_E2 | _E2) D2 C3 D | _E4 (D4 | D8) |] %74
w: le- * * lu-||* ia.||
V:3
 z8 |2 z8 || z8 | z8 | z8 | z8 | z8 | z4 A4- | A4 D4 | A6 A2 | B2 B2 A4 | z2 d2 B2 c2 | %12
w: |||||||O|* ma-|gnum my-|ste- ri- um|et ad- mi-|
 d3 d d2 A2 | B2 A2- AGFE | F4 G4 | A4 B2 d2 | B2 c2 d3 d | d2 c2 B2 c2 | A4 G2 B2 |2 A3 F G2 A2 || %20
w: ra- bi- le sa-|cra- men- * * * *||* tum, et|ad- mi- ra- bi-|le sa- cra- *|men- tum, ut|a- ni- ma- li-|
 B2 G2 d3 d | c2 A2 G2 B2 | B3 B B2 B2 | c2 d4 _d2 | d2 D2 d3 d | d2 d2 c4 | _e4 d4 |2 z2 G2 d4 || %28
w: a, ut a- ni-|ma- li- a vi-|de- rent Do- mi-|num na- *|tum, vi- de- rent|Do- mi- num|na- tum,|ja- cen-|
 c2 A2 _c2 =c2 | dcBA GABG | A6 A2 | G4 z2 G2 | d4 c2 A2 | B2 (A2 A)GFE | F2 G4 _G2 | G2 B2 c2 d2 | %36
w: tem in prae- *|se- * * * * * * *|* pi-|o, ja-|cen- tem in|prae- se- * * * *|* * pi-|o, in prae- se-|
 _e3 d cB c2 | B2 AG A2 A2 | G4 z4 |2 A6 A2 || A4 B4 | A6 G2 | A4 B4 | A2 A4 A2 | _c3 c =c2 GA | %45
w: |* * * * pi-|o.|O be-|a- ta|Vir- *||go, cu- jus|vi- sce- ra me- *|
 Bc d4 B2 | c2 B4 A2 | B2 B2 c2 d2 | G6 B2 | A8 | F8 | G4 A4 |[M:3/4] G4 G2 || d4 d2 | c4 c2 | %55
w: * * * ru-|e- * *|runt por- ta- re|Do- mi-|num|Je-|sum Chri-|stum. Al-|le- lu-|ia, Al-|
 G2 d4 | G4 B2 | A4 F2 | G3 F GA | B2 A4 | G4 D2 | E2 C4 | D4 B2 | A4 F2 | G4 G2 | G2 A4 | %66
w: le- lu-|ia, Al-|le- lu-|ia, Al- * *|le- lu-|ia, Al-|le- lu-|ia, Al-|le- lu-|ia, Al-|le- lu-|
[M:4/4] G2 B2 AGFE | D2 GA BcdB | c3 d _edcB | A2 G2 A2 d2 | dcBA G2 B2 | c2 d2 _e3 d | c6 _cA | %73
w: ia, Al- le- * * *|* lu- * * * * *||* * ia, Al-|le- * * * * lu-|||
 _c8 |] %74
w: ia.|
V:4
 z8 |2 z8 || z8 | z8 | z8 | z8 | z8 | z8 | z8 | D,8 | G,,4 D,4- | D,2 D,2 _E,2 E,2 | D,4 z2 D,2 | %13
w: |||||||||O|ma- gnum|* my- ste- ri-|um et|
 B,,2 C,2 D,3 D, | D,2 B,,2 _E,4 | D,4 G,,2 G,,2 | G,2 F,2 B,,3 B,, | B,,2 F,2 G,2 C,2 | %18
w: ad- mi- ra- bi-|le sa- cra-|men- tum, et|ad- mi- ra- bi-|le sa- cra- *|
 D,4 G,,2 G,2 |2 F,3 D, E,2 _G,2 || G,4 z4 | z4 z2 G,,2 | G,3 G, G,2 G,2 | F,3 G, A,4 | D,4 z4 | %25
w: men- tum, ut|a- ni- ma- li-|a|vi-|de- rent Do- mi-|rum * na-|tum,|
 z8 | z4 z2 D,2 |2 G,4 F,2 D,2 || E,2 F,2 G,2 F,E, | D,3 F, _E,2 E,2 | D,4 z4 | z2 C,2 G,4 | %32
w: |ja-|cen- tem in|prae- se- * * *|* * * pi-|o,|ja- cen-|
 F,2 D,2 E,2 F,2 | G,2 F,E, D,3 C, | B,,2 A,,G,, A,,2 A,,2 | G,,2 G,2 F,2 D,2 | C,8 | D,6 D,2 | %38
w: tem in prae- se-||* * * * pi-|o, in prae- se-||* pi-|
 G,,4 z4 |2 D,6 D,2 || D,4 G,,4 | D,3 E, _G,2 (=G,2 | G,)_G, G,2 =G,4 | D,2 D,4 D,2 | G,3 G, C,4 | %45
w: o.|O be-|a- ta|Vir- * * *||go, cu- jus|vi- sce- ra|
 G,6 G,2 | F,2 B,,2 F,4 | B,,4 z4 | z8 | z4 (D,4 | D,4) B,,4 | _E,4 D,4 |[M:3/4] G,,4 z2 || z6 | %54
w: me- ru-|e- * *|runt||Je-|* sum|Chri- *|stum||
 z6 | z6 | z4 G,,2 | D,4 D,2 | C,4 C,2 | G,,2 D,4 | G,,4 G,,2 | C,2 A,,4 | G,,4 G,,2 | D,4 D,2 | %64
w: ||Al-|le- lu-|ia, Al-|le- lu-|ia, Al-|le- lu-|ia, Al-|le- lu-|
 C,4 C,2 | _E,2 D,4 |[M:4/4] G,,2 G,2 F,E,D,C, | B,,A,,G,,F,, G,,4 | C,8 | D,8 | %70
w: ia, Al-|le- lu-|ia, Al- le- * * *||lu-||
 G,,2 G,2 G,F,_E,D, | C,2 _C,2 (=C,4 | C,4) (G,,4 | G,,8) |] %74
w: ia, Al- le- * * *|* * lu-|* ia.||

